icons/appdynamics.svg

<?xml version="1.0" encoding="UTF-8" standalone="no"?>
<svg width="256px" height="256px" viewBox="0 0 256 256" version="1.1" xmlns="http://www.w3.org/2000/svg" xmlns:xlink="http://www.w3.org/1999/xlink" preserveAspectRatio="xMidYMid">
	<g>
		<rect fill="#43AF49" x="0" y="0" width="256" height="256"></rect>
		<path d="M185.750633,171.568067 C187.751265,175.495508 202.169106,203.430536 203.305997,205.28352 L190.984759,205.28352 L142.917907,139.77204 L127.525589,129.348082 L112.13327,139.77204 L64.0738006,205.28352 L51.7525633,205.28352 C52.889454,203.430536 67.3072949,175.495508 69.3005448,171.568067 C71.3011771,167.640627 127.525589,50.09056 127.525589,50.09056 L185.750633,171.568067" fill="#FFFFFF"></path>
	</g>
</svg>

<svg xmlns="http://www.w3.org/2000/svg" viewBox="0 0 256 256">
  <path fill="#43af49" d="M0 0h256v256H0z"/>
  <path fill="#fff" d="M185.75 171.568c2.001 3.928 16.42 31.863 17.556 33.716h-12.321l-48.067-65.512-15.392-10.424-15.393 10.424-48.06 65.512h-12.32c1.136-1.853 15.554-29.788 17.548-33.716 2-3.927 58.225-121.477 58.225-121.477l58.225 121.477"/>
</svg>
